X: 23164
T: Le Mariage Anglais
R: polka
M: 2/4
K: Dminor
D2 FE|D2 C2|F2 G2|A4|A>G AB|A3 D|E2 G2|E4|
A>G AB|A2 D2|E2 G2|F2 E2|F2 A2|E4|
A>G AB|A2 D2|E2 G2|FD FE|D4||

